src/assets/logo.svg

<svg width="44" height="44" viewBox="0 0 44 44" fill="none" xmlns="http://www.w3.org/2000/svg">
<g clip-path="url(#clip0)">
<path d="M30.2608 7.26717C29.4577 3.48096 27.163 0.899498 26.1304 0.383225C23.807 -0.778413 23.0327 1.07159 22 1.07159C20.9674 1.07159 20.193 -0.778518 17.8696 0.383225C16.8371 0.899498 14.5424 3.48096 13.7392 7.26717C12.9361 11.0534 22 7.95553 22 7.95553C22 7.95553 31.0639 11.0534 30.2608 7.26717Z" fill="#FFD24F"/>
<path d="M22 18.5867C30.7444 18.5867 37.8331 15.967 37.8331 12.7353C37.8331 9.50367 30.7444 6.88391 22 6.88391C13.2556 6.88391 6.1669 9.50367 6.1669 12.7353C6.1669 15.967 13.2556 18.5867 22 18.5867Z" fill="#FFBE1E"/>
<path d="M12.6842 16.972C11.6523 16.7138 10.9763 17.2654 10.9763 18.3488C10.9763 19.783 12.364 23.2966 13.8228 21.1023C15.2817 18.9081 12.6842 16.972 12.6842 16.972Z" fill="#FFE1B2"/>
<path d="M31.1406 16.972C32.2669 16.7138 33.0049 17.2654 33.0049 18.3488C33.0049 19.783 31.4902 23.2966 29.8977 21.1023C28.3053 18.9081 31.1406 16.972 31.1406 16.972Z" fill="#FFE1B2"/>
<path d="M14.4371 29.4894C15.9766 28.4982 15.8044 25.5481 15.8044 24.8597H28.1956C28.1956 25.5481 28.0047 28.4982 29.5441 29.4894L22 37.9393L14.4371 29.4894Z" fill="#FFD7A3"/>
<path d="M26.8187 32.4322L29.5441 29.4895C28.0045 28.4983 28.1956 25.5481 28.1956 24.8597H15.8044C16.6934 27.4158 22.5737 31.8011 26.8187 32.4322Z" fill="#FDC88E"/>
<path d="M37.8331 44.0001C38.9737 44.0001 39.8983 43.0755 39.8983 41.9349V37.8331C39.8983 34.8041 37.538 31.5705 34.6531 30.6475L30.3463 29.2694C28.0292 31.0412 24.7179 33.4581 22 33.4581C19.2821 33.4581 15.9707 31.0412 13.6536 29.2694L9.34687 30.6475C6.46203 31.5705 4.10172 34.8041 4.10172 37.8331V41.9349C4.10172 43.0755 5.0263 44.0001 6.16691 44.0001H37.8331Z" fill="#FF6953"/>
<path d="M39.8534 42.3607H38.7847V40.9134H39.8983V39.8595H38.7847V38.4121H39.8983V37.833C39.8983 37.6752 39.8881 37.5167 39.8756 37.3583H38.7847V35.911H39.5942C39.4853 35.5535 39.3498 35.2012 39.1879 34.8571H38.7847V34.1022C38.4011 33.4635 37.9328 32.8723 37.4013 32.3559H36.2836V31.4467C35.7695 31.1042 35.2222 30.8295 34.6532 30.6473L32.1758 29.8546H31.2812V29.5682L30.3464 29.2691C30.3077 29.2988 30.2666 29.3298 30.2273 29.3597V29.8546H29.5718C28.9936 30.2862 28.3724 30.7328 27.7261 31.1609V32.3558H26.2787V32.0522C25.0646 32.7359 23.8183 33.2592 22.6522 33.4096H22.7237V34.8569H21.2764V33.4096H21.3479C20.1817 33.2592 18.9354 32.7358 17.7213 32.0521V32.3557H16.2739V31.1608C15.6276 30.7327 15.0064 30.2861 14.4282 29.8545H13.7727V29.3596C13.7335 29.3297 13.6922 29.2986 13.6535 29.269L12.7188 29.5681V29.8545H11.8241L9.34677 30.6472C8.77777 30.8293 8.23043 31.104 7.71635 31.4466V32.3558H6.59876C6.06732 32.8722 5.59896 33.4632 5.21534 34.1021V34.857H4.81215C4.65042 35.2011 4.51484 35.5533 4.40583 35.9109H5.21534V37.3583H4.12442C4.11186 37.5167 4.10172 37.6752 4.10172 37.833V38.4121H5.21523V39.8595H4.10172V40.9134H5.21523V42.3607H4.1467C4.23269 42.7703 4.44077 43.1336 4.73013 43.4146H5.21523V43.7575C5.50125 43.9072 5.82168 44 6.16691 44H6.26922V43.4146H7.71656V44H8.77055V43.4146H10.2177V44H11.2716V43.4146H12.7189V44H13.7728V43.4146H15.2201V44H16.274V43.4146H17.7214V44H18.7754V43.4146H20.2227V44H21.2766V43.4146H22.7239V44H23.7778V43.4146H25.2251V44H26.279V43.4146H27.7264V44H28.7803V43.4146H30.2276V44H31.2815V43.4146H32.7288V44H33.7827V43.4146H35.23V44H36.284V43.4146H37.7314V44H37.8337C38.1789 44 38.4994 43.9072 38.7854 43.7575V43.4146H39.2705C39.5592 43.1336 39.7674 42.7703 39.8534 42.3607ZM7.71646 42.3607H6.26912V40.9134H7.71646V42.3607ZM7.71646 39.8596H6.26912V38.4122H7.71646V39.8596ZM7.71646 37.3584H6.26912V35.911H7.71646V37.3584ZM7.71646 34.8571H6.26912V33.4098H7.71646V34.8571ZM10.2177 42.3607H8.77034V40.9134H10.2177V42.3607ZM10.2177 39.8596H8.77034V38.4122H10.2177V39.8596ZM10.2177 37.3584H8.77034V35.911H10.2177V37.3584ZM10.2177 34.8571H8.77034V33.4098H10.2177V34.8571ZM10.2177 32.3559H8.77034V30.9086H10.2177V32.3559ZM12.7189 42.3607H11.2716V40.9134H12.7189V42.3607ZM12.7189 39.8596H11.2716V38.4122H12.7189V39.8596ZM12.7189 37.3584H11.2716V35.911H12.7189V37.3584ZM12.7189 34.8571H11.2716V33.4098H12.7189V34.8571ZM12.7189 32.3559H11.2716V30.9086H12.7189V32.3559ZM15.22 42.3607H13.7727V40.9134H15.22V42.3607ZM15.22 39.8596H13.7727V38.4122H15.22V39.8596ZM15.22 37.3584H13.7727V35.911H15.22V37.3584ZM15.22 34.8571H13.7727V33.4098H15.22V34.8571ZM15.22 32.3559H13.7727V30.9086H15.22V32.3559ZM17.7213 42.3607H16.2739V40.9134H17.7213V42.3607ZM17.7213 39.8596H16.2739V38.4122H17.7213V39.8596ZM17.7213 37.3584H16.2739V35.911H17.7213V37.3584ZM17.7213 34.8571H16.2739V33.4098H17.7213V34.8571ZM20.2225 42.3607H18.7751V40.9134H20.2225V42.3607ZM20.2225 39.8596H18.7751V38.4122H20.2225V39.8596ZM20.2225 37.3584H18.7751V35.911H20.2225V37.3584ZM20.2225 34.8571H18.7751V33.4098H20.2225V34.8571ZM22.7236 42.3607H21.2763V40.9134H22.7236V42.3607ZM22.7236 39.8596H21.2763V38.4122H22.7236V39.8596ZM22.7236 37.3584H21.2763V35.911H22.7236V37.3584ZM25.2248 42.3607H23.7775V40.9134H25.2248V42.3607ZM25.2248 39.8596H23.7775V38.4122H25.2248V39.8596ZM25.2248 37.3584H23.7775V35.911H25.2248V37.3584ZM25.2248 34.8571H23.7775V33.4098H25.2248V34.8571ZM27.7261 42.3607H26.2787V40.9134H27.7261V42.3607ZM27.7261 39.8596H26.2787V38.4122H27.7261V39.8596ZM27.7261 37.3584H26.2787V35.911H27.7261V37.3584ZM27.7261 34.8571H26.2787V33.4098H27.7261V34.8571ZM30.2273 42.3607H28.7799V40.9134H30.2273V42.3607ZM30.2273 39.8596H28.7799V38.4122H30.2273V39.8596ZM30.2273 37.3584H28.7799V35.911H30.2273V37.3584ZM30.2273 34.8571H28.7799V33.4098H30.2273V34.8571ZM30.2273 32.3559H28.7799V30.9086H30.2273V32.3559ZM32.7284 42.3607H31.2811V40.9134H32.7284V42.3607ZM32.7284 39.8596H31.2811V38.4122H32.7284V39.8596ZM32.7284 37.3584H31.2811V35.911H32.7284V37.3584ZM32.7284 34.8571H31.2811V33.4098H32.7284V34.8571ZM32.7284 32.3559H31.2811V30.9086H32.7284V32.3559ZM35.2296 42.3607H33.7823V40.9134H35.2296V42.3607ZM35.2296 39.8596H33.7823V38.4122H35.2296V39.8596ZM35.2296 37.3584H33.7823V35.911H35.2296V37.3584ZM35.2296 34.8571H33.7823V33.4098H35.2296V34.8571ZM35.2296 32.3559H33.7823V30.9086H35.2296V32.3559ZM37.7309 42.3607H36.2835V40.9134H37.7309V42.3607ZM37.7309 39.8596H36.2835V38.4122H37.7309V39.8596ZM37.7309 37.3584H36.2835V35.911H37.7309V37.3584ZM37.7309 34.8571H36.2835V33.4098H37.7309V34.8571Z" fill="#E95F43"/>
<path d="M22 33.4579L19.1277 36.3302C18.8286 36.6293 18.333 36.5904 18.0842 36.2483L13.0508 29.3274L14.6542 27.7241C14.9131 27.4652 15.3293 27.4543 15.6014 27.6992L22 33.4579Z" fill="#FFBE1E"/>
<path d="M22 33.4579L24.8723 36.3302C25.1714 36.6293 25.6669 36.5904 25.9158 36.2483L30.9491 29.3274L29.3458 27.7241C29.0869 27.4652 28.6706 27.4543 28.3985 27.6992L22 33.4579Z" fill="#FFBE1E"/>
<path d="M12.7917 12.317C12.6307 13.2909 12.6219 14.4618 12.6219 15.8533C12.6219 21.3661 15.7108 28.2445 22.0001 28.2445C28.2894 28.2445 31.3782 21.3661 31.3782 15.8533C31.3782 14.4617 31.3695 13.2909 31.2085 12.317C28.6855 11.4668 25.4852 10.957 22.0002 10.957C18.5152 10.957 15.3146 11.4667 12.7917 12.317Z" fill="#FFE1B2"/>
<path d="M31.4134 13.4306C30.8624 12.7235 30.2715 11.9969 30.2715 11.9969V12.6853C30.4422 18.9239 28.2223 21.6344 28.2223 21.6344L25.3937 21.9511C23.1878 22.1981 20.9616 22.1981 18.7557 21.9511L15.9271 21.6344C15.9271 21.6344 13.7072 18.9239 13.8779 12.6853V11.9969C13.8779 11.9969 13.287 12.7234 12.736 13.4306C12.5924 14.0446 12.3624 14.7121 12.3624 15.4448C12.3624 20.9576 15.6615 28.9057 22.0747 28.9057C28.4879 28.9057 31.6375 20.9576 31.6375 15.4448C31.6376 14.7121 31.5571 14.0446 31.4134 13.4306ZM20.0255 23.2695H24.1239C24.6858 23.2695 25.1675 23.6119 25.3774 24.1005C24.6207 24.4324 23.4593 24.6462 22.1501 24.6462C20.7679 24.6462 19.553 24.4073 18.803 24.0431C19.0254 23.5865 19.4867 23.2695 20.0255 23.2695Z" fill="#A7795E"/>
<path d="M22.3657 22.6571C22.3657 21.7481 21.4837 21.5424 20.9029 21.7627C19.838 22.1666 18.6656 23.2934 17.6761 22.5966C17.6761 22.5966 18.0202 24.051 18.601 24.051C19.7626 24.0509 22.3657 24.2025 22.3657 22.6571Z" fill="#543D38"/>
<path d="M22.0873 22.6571C22.0873 21.7481 22.9693 21.5424 23.5502 21.7627C24.615 22.1666 25.7875 23.2934 26.777 22.5966C26.777 22.5966 26.4328 24.051 25.8521 24.051C24.6905 24.0509 22.0873 24.2025 22.0873 22.6571Z" fill="#543D38"/>
<path d="M33.7028 30.2536L30.9492 29.3724V37.843C30.9492 38.1581 30.7401 38.4366 30.4342 38.512C28.1039 39.0859 25.1809 39.4294 22.0001 39.4294C18.8193 39.4294 15.8963 39.0859 13.566 38.512C13.26 38.4366 13.051 38.1581 13.051 37.843V29.3724L10.2974 30.2536V44H33.7029V30.2536H33.7028Z" fill="#C55F54"/>
<path d="M12.4086 17.061L14.2675 17.4037C14.2675 17.4037 14.9935 13.3329 15.3826 11.6417C14.3673 11.8444 13.4098 12.0881 12.5369 12.3743C12.3714 13.3482 12.3624 14.5191 12.3624 15.9106C12.3625 16.2885 12.3788 16.6731 12.4086 17.061Z" fill="#543D38"/>
<path d="M31.5914 17.061L29.7325 17.4037C29.7325 17.4037 29.0065 13.3329 28.6174 11.6417C29.6327 11.8444 30.5902 12.0881 31.4631 12.3743C31.6286 13.3482 31.6376 14.5191 31.6376 15.9106C31.6376 16.2885 31.6212 16.6731 31.5914 17.061Z" fill="#543D38"/>
<path d="M26.0444 13.3234L27.6961 11.4432C25.9426 11.1331 24.022 10.957 22 10.957C20.7694 10.957 19.5771 11.0237 18.4348 11.1433C19.5146 11.0695 23.764 11.6417 26.0444 13.3234Z" fill="#543D38"/>
</g>
<defs>
<clipPath id="clip0">
<rect width="44" height="44" fill="white"/>
</clipPath>
</defs>
</svg>

<svg width="44" height="44" fill="none" xmlns="http://www.w3.org/2000/svg"><g clip-path="url(#a)"><path d="M30.26 7.267C29.459 3.481 27.164.9 26.13.383c-2.323-1.161-3.097.689-4.13.689s-1.807-1.85-4.13-.689c-1.033.516-3.328 3.098-4.13 6.884-.804 3.786 8.26.689 8.26.689s9.064 3.097 8.26-.689Z" fill="#FFD24F"/><path d="M22 18.587c8.744 0 15.833-2.62 15.833-5.852 0-3.231-7.089-5.851-15.833-5.851S6.167 9.504 6.167 12.735c0 3.232 7.089 5.852 15.833 5.852Z" fill="#FFBE1E"/><path d="M12.684 16.972c-1.032-.258-1.708.293-1.708 1.377 0 1.434 1.388 4.948 2.847 2.753 1.459-2.194-1.139-4.13-1.139-4.13ZM31.14 16.972c1.127-.258 1.865.293 1.865 1.377 0 1.434-1.515 4.948-3.107 2.753-1.593-2.194 1.243-4.13 1.243-4.13Z" fill="#FFE1B2"/><path d="M14.437 29.49c1.54-.992 1.367-3.942 1.367-4.63h12.392c0 .688-.191 3.638 1.348 4.63L22 37.94l-7.563-8.45Z" fill="#FFD7A3"/><path d="m26.819 32.432 2.725-2.943c-1.54-.99-1.348-3.94-1.348-4.63H15.804c.89 2.557 6.77 6.942 11.015 7.573Z" fill="#FDC88E"/><path d="M37.833 44c1.14 0 2.065-.925 2.065-2.065v-4.102c0-3.029-2.36-6.262-5.245-7.186l-4.307-1.378c-2.317 1.772-5.628 4.189-8.346 4.189s-6.03-2.417-8.346-4.189l-4.307 1.378c-2.885.924-5.245 4.157-5.245 7.186v4.102c0 1.14.924 2.065 2.065 2.065h31.666Z" fill="#FF6953"/><path d="M39.853 42.36h-1.068v-1.447h1.113V39.86h-1.113v-1.448h1.113v-.579c0-.158-.01-.316-.022-.475h-1.091v-1.447h.81a7.846 7.846 0 0 0-.407-1.054h-.403v-.755a8.659 8.659 0 0 0-1.384-1.746h-1.117v-.91a6.57 6.57 0 0 0-1.63-.799l-2.478-.792h-.895v-.287l-.935-.299c-.038.03-.08.06-.119.09v.496h-.655c-.578.431-1.2.878-1.846 1.306v1.195H26.28v-.304c-1.214.684-2.46 1.207-3.627 1.358h.072v1.447h-1.448V33.41h.072c-1.166-.15-2.413-.674-3.627-1.358v.304h-1.447V31.16a40.384 40.384 0 0 1-1.846-1.306h-.655v-.495l-.12-.091-.934.3v.286h-.895l-2.477.792a6.562 6.562 0 0 0-1.63.8v.909H6.598c-.532.516-1 1.107-1.384 1.746v.755h-.403a7.878 7.878 0 0 0-.406 1.054h.81v1.447H4.123a6.017 6.017 0 0 0-.022.475v.58h1.113v1.447H4.102v1.053h1.113v1.448H4.147c.086.41.294.773.583 1.054h.485v.343c.286.15.607.242.952.242h.102v-.585h1.448V44H8.77v-.585h1.447V44h1.054v-.585h1.447V44h1.054v-.585h1.447V44h1.054v-.585h1.447V44h1.054v-.585h1.448V44h1.054v-.585h1.447V44h1.054v-.585h1.447V44h1.054v-.585h1.447V44h1.054v-.585h1.448V44h1.053v-.585h1.448V44h1.054v-.585h1.447V44h1.054v-.585h1.447V44h.103c.345 0 .665-.093.951-.242v-.343h.486c.288-.281.496-.645.582-1.054Zm-32.137 0H6.27v-1.447h1.447v1.448Zm0-2.5H6.27v-1.448h1.447v1.448Zm0-2.502H6.27v-1.447h1.447v1.447Zm0-2.5H6.27V33.41h1.447v1.447Zm2.502 7.503H8.77v-1.448h1.448v1.448Zm0-2.501H8.77v-1.448h1.448v1.448Zm0-2.502H8.77v-1.447h1.448v1.447Zm0-2.5H8.77V33.41h1.448v1.447Zm0-2.502H8.77v-1.447h1.448v1.447Zm2.5 10.005h-1.446v-1.448h1.447v1.448Zm0-2.501h-1.446v-1.448h1.447v1.448Zm0-2.502h-1.446v-1.447h1.447v1.447Zm0-2.5h-1.446V33.41h1.447v1.447Zm0-2.502h-1.446v-1.447h1.447v1.447ZM15.22 42.36h-1.447v-1.448h1.447v1.448Zm0-2.501h-1.447v-1.448h1.447v1.448Zm0-2.502h-1.447v-1.447h1.447v1.447Zm0-2.5h-1.447V33.41h1.447v1.447Zm0-2.502h-1.447v-1.447h1.447v1.447Zm2.501 10.005h-1.447v-1.448h1.447v1.448Zm0-2.501h-1.447v-1.448h1.447v1.448Zm0-2.502h-1.447v-1.447h1.447v1.447Zm0-2.5h-1.447V33.41h1.447v1.447Zm2.502 7.503h-1.448v-1.448h1.448v1.448Zm0-2.501h-1.448v-1.448h1.448v1.448Zm0-2.502h-1.448v-1.447h1.448v1.447Zm0-2.5h-1.448V33.41h1.448v1.447Zm2.5 7.503h-1.447v-1.448h1.448v1.448Zm0-2.501h-1.447v-1.448h1.448v1.448Zm0-2.502h-1.447v-1.447h1.448v1.447Zm2.502 5.003h-1.448v-1.448h1.448v1.448Zm0-2.501h-1.448v-1.448h1.448v1.448Zm0-2.502h-1.448v-1.447h1.448v1.447Zm0-2.5h-1.448V33.41h1.448v1.447Zm2.501 7.503H26.28v-1.448h1.447v1.448Zm0-2.501H26.28v-1.448h1.447v1.448Zm0-2.502H26.28v-1.447h1.447v1.447Zm0-2.5H26.28V33.41h1.447v1.447Zm2.501 7.503H28.78v-1.448h1.447v1.448Zm0-2.501H28.78v-1.448h1.447v1.448Zm0-2.502H28.78v-1.447h1.447v1.447Zm0-2.5H28.78V33.41h1.447v1.447Zm0-2.502H28.78v-1.447h1.447v1.447Zm2.501 10.005h-1.447v-1.448h1.447v1.448Zm0-2.501h-1.447v-1.448h1.447v1.448Zm0-2.502h-1.447v-1.447h1.447v1.447Zm0-2.5h-1.447V33.41h1.447v1.447Zm0-2.502h-1.447v-1.447h1.447v1.447ZM35.23 42.36h-1.448v-1.448h1.448v1.448Zm0-2.501h-1.448v-1.448h1.448v1.448Zm0-2.502h-1.448v-1.447h1.448v1.447Zm0-2.5h-1.448V33.41h1.448v1.447Zm0-2.502h-1.448v-1.447h1.448v1.447Zm2.5 10.005h-1.447v-1.448h1.448v1.448Zm0-2.501h-1.447v-1.448h1.448v1.448Zm0-2.502h-1.447v-1.447h1.448v1.447Zm0-2.5h-1.447V33.41h1.448v1.447Z" fill="#E95F43"/><path d="m22 33.458-2.872 2.872c-.3.3-.795.26-1.044-.082l-5.033-6.92 1.603-1.604a.688.688 0 0 1 .947-.025L22 33.458ZM22 33.458l2.872 2.872c.3.3.795.26 1.044-.082l5.033-6.92-1.603-1.604a.688.688 0 0 0-.948-.025L22 33.458Z" fill="#FFBE1E"/><path d="M12.792 12.317c-.161.974-.17 2.145-.17 3.536 0 5.513 3.089 12.391 9.378 12.391 6.29 0 9.378-6.878 9.378-12.39 0-1.392-.009-2.563-.17-3.537-2.522-.85-5.723-1.36-9.208-1.36-3.485 0-6.685.51-9.208 1.36Z" fill="#FFE1B2"/><path d="M31.413 13.43c-.55-.707-1.142-1.433-1.142-1.433v.688c.171 6.239-2.049 8.95-2.049 8.95l-2.828.316a29.825 29.825 0 0 1-6.638 0l-2.829-.317s-2.22-2.71-2.05-8.949v-.688s-.59.726-1.141 1.434c-.144.614-.374 1.281-.374 2.014 0 5.513 3.3 13.46 9.713 13.46 6.413 0 9.563-7.947 9.563-13.46 0-.733-.08-1.4-.225-2.014Zm-11.387 9.84h4.098c.562 0 1.044.342 1.253.83-.756.332-1.918.546-3.227.546-1.382 0-2.597-.239-3.347-.603a1.361 1.361 0 0 1 1.223-.773Z" fill="#A7795E"/><path d="M22.366 22.657c0-.909-.882-1.115-1.463-.894-1.065.404-2.237 1.53-3.227.833 0 0 .344 1.455.925 1.455 1.162 0 3.765.152 3.765-1.394Z" fill="#543D38"/><path d="M22.087 22.657c0-.909.882-1.115 1.463-.894 1.065.404 2.238 1.53 3.227.833 0 0-.344 1.455-.925 1.455-1.162 0-3.765.152-3.765-1.394Z" fill="#543D38"/><path d="m33.703 30.254-2.754-.882v8.47c0 .316-.209.595-.515.67-2.33.574-5.253.917-8.434.917-3.18 0-6.104-.343-8.434-.917a.684.684 0 0 1-.515-.67v-8.47l-2.754.882V44h23.406V30.254Z" fill="#C55F54"/><path d="m12.409 17.06 1.858.344s.726-4.071 1.116-5.762a24.714 24.714 0 0 0-2.846.732c-.166.974-.175 2.145-.175 3.537 0 .377.017.762.047 1.15ZM31.591 17.06l-1.858.344s-.727-4.071-1.116-5.762c1.016.202 1.973.446 2.846.732.166.974.175 2.145.175 3.537 0 .377-.017.762-.047 1.15ZM26.044 13.323l1.652-1.88A32.861 32.861 0 0 0 22 10.957c-1.23 0-2.423.067-3.565.186 1.08-.074 5.329.499 7.61 2.18Z" fill="#543D38"/></g><defs><clipPath id="a"><path fill="#fff" d="M0 0h44v44H0z"/></clipPath></defs></svg>
